icons/user-x.svg

<svg width="24" height="24" viewBox="0 0 24 24" fill="none" xmlns="http://www.w3.org/2000/svg">
<path fill-rule="evenodd" clip-rule="evenodd" d="M12 3C9.79086 3 8 4.79086 8 7C8 9.20914 9.79086 11 12 11C14.2091 11 16 9.20914 16 7C16 4.79086 14.2091 3 12 3ZM6 7C6 3.68629 8.68629 1 12 1C15.3137 1 18 3.68629 18 7C18 10.3137 15.3137 13 12 13C8.68629 13 6 10.3137 6 7ZM12 16C8.68629 16 6 18.6863 6 22C6 22.5523 5.55228 23 5 23C4.44772 23 4 22.5523 4 22C4 17.5817 7.58172 14 12 14C12.5523 14 13 14.4477 13 15C13 15.5523 12.5523 16 12 16ZM16.2929 16.2929C16.6834 15.9024 17.3166 15.9024 17.7071 16.2929L19 17.5858L20.2929 16.2929C20.6834 15.9024 21.3166 15.9024 21.7071 16.2929C22.0976 16.6834 22.0976 17.3166 21.7071 17.7071L20.4142 19L21.7071 20.2929C22.0976 20.6834 22.0976 21.3166 21.7071 21.7071C21.3166 22.0976 20.6834 22.0976 20.2929 21.7071L19 20.4142L17.7071 21.7071C17.3166 22.0976 16.6834 22.0976 16.2929 21.7071C15.9024 21.3166 15.9024 20.6834 16.2929 20.2929L17.5858 19L16.2929 17.7071C15.9024 17.3166 15.9024 16.6834 16.2929 16.2929Z" fill="black"/>
</svg>

<svg
  width="24"
  height="24"
  viewBox="0 0 24 24"
  xmlns="http://www.w3.org/2000/svg"
>
  <path
    fill-rule="evenodd"
    clip-rule="evenodd"
    d="M12 3a4 4 0 1 0 0 8 4 4 0 0 0 0-8zM6 7a6 6 0 1 1 12 0A6 6 0 0 1 6 7zm6 9a6 6 0 0 0-6 6 1 1 0 1 1-2 0 8 8 0 0 1 8-8 1 1 0 1 1 0 2zm4.293.293a1 1 0 0 1 1.414 0L19 17.586l1.293-1.293a1 1 0 0 1 1.414 1.414L20.414 19l1.293 1.293a1 1 0 0 1-1.414 1.414L19 20.414l-1.293 1.293a1 1 0 0 1-1.414-1.414L17.586 19l-1.293-1.293a1 1 0 0 1 0-1.414z"
  />
</svg>
